Newaita/actions/24/edit-paste-in-place.svg

<svg height="24" viewBox="0 0 24 24" width="24" xmlns="http://www.w3.org/2000/svg"><path d="m11.90625 2.667969c-3.570312 0-6.449219 2.875-6.449219 6.449219 0 .132812.003907.261718.011719.390624.160156 4.730469 3.238281 8.722657 5.679688 11.652344.394531.476563 1.121093.476563 1.519531 0 2.441406-2.929687 5.515625-6.921875 5.679687-11.652344.003906-.128906.007813-.257812.007813-.390624 0-3.574219-2.875-6.449219-6.449219-6.449219zm0 1.984375c2.476562 0 4.464844 1.992187 4.464844 4.464844 0 2.476562-1.988282 4.464843-4.464844 4.464843-2.472656 0-4.464844-1.988281-4.464844-4.464843 0-2.472657 1.992188-4.464844 4.464844-4.464844zm0 0" fill="#424242"/></svg>

<?xml version="1.0" encoding="UTF-8"?>
<svg xmlns="http://www.w3.org/2000/svg" xmlns:xlink="http://www.w3.org/1999/xlink" width="24px" height="24px" viewBox="0 0 24 24" version="1.1">
<g id="surface1">
<path style=" stroke:none;fill-rule:nonzero;fill:rgb(25.882354%,25.882354%,25.882354%);fill-opacity:1;" d="M 11.90625 2.667969 C 8.335938 2.667969 5.457031 5.542969 5.457031 9.117188 C 5.457031 9.25 5.460938 9.378906 5.46875 9.507812 C 5.628906 14.238281 8.707031 18.230469 11.148438 21.160156 C 11.542969 21.636719 12.269531 21.636719 12.667969 21.160156 C 15.109375 18.230469 18.183594 14.238281 18.347656 9.507812 C 18.351562 9.378906 18.355469 9.25 18.355469 9.117188 C 18.355469 5.542969 15.480469 2.667969 11.90625 2.667969 Z M 11.90625 4.652344 C 14.382812 4.652344 16.371094 6.644531 16.371094 9.117188 C 16.371094 11.59375 14.382812 13.582031 11.90625 13.582031 C 9.433594 13.582031 7.441406 11.59375 7.441406 9.117188 C 7.441406 6.644531 9.433594 4.652344 11.90625 4.652344 Z M 11.90625 4.652344 "/>
</g>
</svg>
